X:1
T:Title
%%score ( 1 2 ) { 3 | 4 }
L:1/8
Q:1/4=95
M:4/4
K:G
V:1 treble nm="Grand Piano, Soprano"
V:2 treble 
V:3 treble nm="Choir Pad, It Is Wonderful to Me!"
V:4 bass 
V:1
 [GB]2 [GB][Gc] [GB][DA] [DG]2 | [Gd]2 [Gd][Ge] [Gd]4 | [Ge]2 [Ge][Ge] [Gd][Gd][Gd][GB] | %3
w: By~Edward~C.~Avis * * * * *|||
 z2 ^c2 z4 | [Gd]2 [Gd][Gd] [Ge][Gd] [GB]2 | [EA][EG][EG][CE] [B,D]4 | DDDD [DG][EG] [DG]2 | %7
w: ||||
 [FA][FA][EA][GB] [FA]4 | [Gd]2 [Gd][Gd] [Ge][Gd] [GB]2 | [EA][EG][EG][CE] [B,D]4 | %10
w: |||
 [DG][DG][DG][FA] [GB][Gd][Gd][Gc] | [GB]2 [DA]2 [DG]4- | [DG]4 z4 |] %13
w: |||
V:2
 x8 | x8 | x8 | [FA]2 EG [Fd]4 | x8 | x8 | x8 | x8 | x8 | x8 | x8 | x8 | x8 |] %13
V:3
 D2 DE DC[K:bass] B,2 | B,2 B,C B,4 | C2 CC CB,B,D | D2[K:bass] A,2 A,4 | %4
 B,2 B,B,[K:treble] CB, D2 | CCC[K:bass]G, G,4 | B,B,B,B, B,[K:treble]C B,2 | DD^CC D4 | %8
 B,2 B,B, CB,[K:treble] D2 | CCCG,[K:bass] G,4 | B,B,B,D DB,B,[K:treble]E | D2 C2 B,4- | B,4 z4 |] %13
V:4
 G,2 G,G, G,G, G,2 | G,2 G,G, G,4 | C,2 C,C, G,G,G,G, | A,2 A,,2 D,4 | G,2 G,G, G,G, G,2 | %5
 C,C,C,E, z4 | G,G,G,G, G,G, G,2 | D,D,A,,A,, D,4 | G,2 G,G, G,G, G,2 | C,C,C,E, z4 | %10
 G,G,G,D, G,G,G,C, | D,2 D,2 [G,,G,]4- | [G,,G,]4 z4 |] %13

